X:1
T:Ballinasloe Fair
L:1/8
M:2/2
I:linebreak $
K:G
V:1 treble 
V:1
 A3 B c2 BA | GFGA GE D2 | A3 B cBca |1 gedB c2 Bc :|2 gedB cdef || gc c2 gcac |$ gc c2 Bcde | %7
 gc c2 a2 af | gedB cdef | gc c2 gcac | gc c2 B2 Bc | A3 B cBca |$ gedB cdef || g2 gf g2 ef | %14
 gc c2 Bcde | gc c2 a2 af | gedB cdef | gc c2 gcac |$ gc c2 B2 Bc | A3 B cBca | gedB c2 Bc || %21
